packages/ffe-icons/icons/open/300/lg/toll.svg

<svg xmlns="http://www.w3.org/2000/svg" height="40" viewBox="0 -960 960 960" width="40"><path d="M600.061-180.001q-125.599 0-212.829-87.17-87.231-87.169-87.231-212.768t87.17-212.829q87.169-87.231 212.768-87.231t212.829 87.17q87.231 87.169 87.231 212.768t-87.17 212.829q-87.169 87.231-212.768 87.231Zm-344.419-20.103q-89.128-28.025-142.384-105.743Q60.002-383.564 60.002-480q0-96.436 53.256-174.153 53.256-77.718 142.384-105.743 12.359-4.59 21.743 2.777 9.384 7.367 9.384 21.557 0 7.178-4.978 13.626-4.978 6.449-11.97 9.09-72.744 24.871-116.154 89.205Q110.256-559.308 110.256-480q0 79.308 43.411 143.641 43.41 64.334 116.154 89.205 6.992 2.736 11.97 8.982 4.978 6.246 4.978 14.223 0 13.589-9.384 21.012t-21.743 2.833ZM600-480Zm0 249.744q103.385 0 176.564-73.18 73.18-73.179 73.18-176.564 0-103.385-73.18-176.564-73.179-73.18-176.564-73.18-103.385 0-176.564 73.18-73.18 73.179-73.18 176.564 0 103.385 73.18 176.564 73.179 73.18 176.564 73.18Z"/></svg>

<svg xmlns="http://www.w3.org/2000/svg" viewBox="0 -960 960 960" width="32" height="32"><path d="M600.06-180q-125.6 0-212.83-87.17Q300-354.34 300-479.94q0-125.6 87.17-212.83Q474.34-780 599.94-780q125.6 0 212.83 87.17Q900-605.66 900-480.06q0 125.6-87.17 212.83Q725.66-180 600.06-180Zm-344.42-20.1q-89.13-28.03-142.38-105.75Q60-383.56 60-480q0-96.44 53.26-174.15 53.25-77.72 142.38-105.75 12.36-4.59 21.74 2.78 9.39 7.37 9.39 21.56 0 7.18-4.98 13.62-4.98 6.45-11.97 9.09-72.74 24.88-116.15 89.21-43.41 64.33-43.41 143.64 0 79.31 43.41 143.64 43.41 64.33 116.15 89.21 6.99 2.73 11.97 8.98 4.98 6.24 4.98 14.22 0 13.59-9.39 21.01-9.38 7.43-21.74 2.84ZM600-480Zm0 249.74q103.38 0 176.56-73.18T849.74-480q0-103.38-73.18-176.56T600-729.74q-103.38 0-176.56 73.18T350.26-480q0 103.38 73.18 176.56T600-230.26Z"/></svg>
